X: 59
T: Jin bei
%%abc-version 2.0
%%abcx-abcm2ps-target-version 5.9.1 (29 Sep 2008)
%%abc-creator hum2abc beta
%%abcx-conversion-date 2013/10/02 07:44:27
%%abc-edited-by Helmut Schaffrath
%%humdrum-veritas 2913701729
%%humdrum-veritas-data 1875015215
%%continueall 1
%%barnumbers 0
L: 1/8
M: 2/4
K: F
A> d A F/ G/ [I:setbarnb 1]| 
A D D D | 
G> c A F | 
D4 | 
G F/ G/ A A | 
d2g f/ a/ | 
A A/ G/ F F | 
G GA2 | 
c d/ d/ g/ a/ f | 
d2a2 | 
d/ f/ d/ c/ A g/ f/ | 
d4 |]  



